X:0
T:Gnarlyhead
M:4/4
L:1/8
C:© Paul Gitlitz 2007
R:Reel
K:Am
"Am"EAcA "Em"BGge| "G"dBGB "Am"cAAG| "Am"EAcA "Em"BGge|1"G"dBGB "Am"A3G:|2"G"dBGB "Am"ABce|!
|:"Am"a2ab c'bae|"Em"g2ga gdef|"Am"a2ab c'bae|"F/A"gfaf "Am"e4|!
"Am"a2ab c'bae|"Em"g2ga gdef|"Am"ecdB cABG| "Em"EGBc "Am"A4:|]
